packages/kaspersky-hexa-ui-icons/src/iconsSVGs/16x12/FlagPh.svg

<svg width="16" height="12" viewBox="0 0 16 12" fill="none" xmlns="http://www.w3.org/2000/svg">
<g clip-path="url(#clip0_41818_3483)">
<rect x="0.25" y="0.25" width="15.5" height="11.5" rx="1.75" fill="white" stroke="#F5F5F5" stroke-width="0.5"/>
<mask id="mask0_41818_3483" style="mask-type:luminance" maskUnits="userSpaceOnUse" x="0" y="0" width="16" height="12">
<rect x="0.25" y="0.25" width="15.5" height="11.5" rx="1.75" fill="white" stroke="white" stroke-width="0.5"/>
</mask>
<g mask="url(#mask0_41818_3483)">
<path d="M16 5.59993V12.0003H0L7.61914 6.00032L7.11035 5.59993H16Z" fill="#DD1C34"/>
<path d="M16 0V5.59961H7.11035L0 0H16Z" fill="#0D4BC3"/>
<path d="M1.36121 9.3377C1.57159 9.33772 1.74207 9.50697 1.74207 9.71563C1.74183 9.92409 1.57144 10.0926 1.36121 10.0926C1.15096 10.0926 0.980584 9.9241 0.980347 9.71563C0.980347 9.50697 1.15081 9.3377 1.36121 9.3377ZM3.34851 5.43438C3.36321 5.44773 3.37702 5.46182 3.3905 5.47638L4.64441 5.21368L3.57019 5.90802C3.5706 5.91763 3.57312 5.9276 3.57312 5.93731C3.57311 5.94683 3.57059 5.95621 3.57019 5.96563L4.64441 6.65997L3.3905 6.3963C3.37702 6.41088 3.36321 6.42491 3.34851 6.43829L3.61414 7.68243L2.91394 6.61602C2.90429 6.61642 2.89439 6.61895 2.88464 6.61895C2.87446 6.61895 2.86444 6.61646 2.85437 6.61602L2.15613 7.68243L2.42078 6.43829C2.40609 6.42491 2.39225 6.41088 2.37878 6.3963L1.12488 6.65997L2.1991 5.96563C2.1987 5.95622 2.19715 5.94682 2.19714 5.93731C2.19714 5.92761 2.19869 5.91762 2.1991 5.90802L1.12488 5.21368L2.37878 5.47638C2.39225 5.46183 2.4061 5.44773 2.42078 5.43438L2.15613 4.19122L2.85437 5.25665C2.86443 5.25621 2.87448 5.2547 2.88464 5.2547C2.89438 5.2547 2.90431 5.25625 2.91394 5.25665L3.61414 4.19122L3.34851 5.43438ZM5.9325 5.55938C6.14289 5.55938 6.31335 5.72864 6.31335 5.93731C6.31314 6.1458 6.14276 6.31427 5.9325 6.31427C5.72228 6.31422 5.55185 6.14577 5.55164 5.93731C5.55164 5.72868 5.72214 5.55943 5.9325 5.55938ZM1.36121 1.78106C1.57158 1.78109 1.74207 1.95034 1.74207 2.15899C1.74187 2.36748 1.57146 2.5369 1.36121 2.53692C1.15093 2.53692 0.980544 2.36749 0.980347 2.15899C0.980347 1.95032 1.15081 1.78106 1.36121 1.78106Z" fill="#FDD64D"/>
</g>
</g>
<defs>
<clipPath id="clip0_41818_3483">
<rect width="16" height="12" fill="white"/>
</clipPath>
</defs>
</svg>

<svg xmlns="http://www.w3.org/2000/svg" width="16" height="12" fill="none" viewBox="0 0 16 12"><g clip-path="url(#a)"><rect width="16" height="12" fill="#fff" stroke="#f5f5f5" rx="2"/><mask id="b" width="16" height="12" x="0" y="0" maskUnits="userSpaceOnUse" style="mask-type:luminance"><rect width="16" height="12" fill="#fff" stroke="#fff" rx="2"/></mask><g mask="url(#b)"><path fill="#dd1c34" d="M16 5.6v6.4003H0l7.6191-6L7.1104 5.6z"/><path fill="#0d4bc3" d="M16 0v5.5996H7.1104L0 0z"/><path fill="#fdd64d" d="M1.3612 9.3377c.2104 0 .3809.1693.3809.378-.0003.2084-.1707.3769-.3809.3769s-.3806-.1685-.3809-.377c0-.2086.1705-.3779.381-.3779m1.9873-3.9033a.7.7 0 0 1 .042.042l1.254-.2627-1.0743.6943c.0004.0096.003.0196.003.0293 0 .0095-.0026.019-.003.0283l1.0742.6944-1.2539-.2637a.7.7 0 0 1-.042.042l.2656 1.2441L2.914 6.616c-.0096.0004-.0195.003-.0293.003-.0101 0-.0202-.0025-.0302-.003L2.156 7.6824l.2647-1.2441a.7.7 0 0 1-.042-.042l-1.254.2637 1.0743-.6944c-.0004-.0094-.002-.0188-.002-.0283 0-.0097.0016-.0197.002-.0293l-1.0742-.6943 1.2539.2627a.7.7 0 0 1 .042-.042L2.156 4.1912l.6983 1.0654c.01-.0004.02-.0019.0302-.0019.0098 0 .0197.0015.0293.002l.7002-1.0655zm2.584.125c.2104 0 .3808.1692.3808.378-.0002.2084-.1705.3769-.3808.3769-.2102 0-.3807-.1685-.3809-.377 0-.2086.1705-.3779.3809-.378M1.3612 1.781c.2104 0 .3809.1692.3809.3779-.0002.2085-.1706.3779-.3809.378s-.3807-.1695-.3809-.378c0-.2087.1705-.378.381-.378"/></g></g><defs><clipPath id="a"><path fill="#fff" d="M0 0h16v12H0z"/></clipPath></defs></svg>
